assets/images/icons/company-shape.svg

<svg xmlns="http://www.w3.org/2000/svg" width="412" height="542" fill="none"><path fill="#7FB51F" d="M246.079 536.745c31.812-7.589 58.102-26.424 73.726-52.817 7.229-12.531 11.516-26.59 12.606-41.341 1.089-14.75-1.041-29.89-6.265-44.521-5.928-17.053-15.206-33.236-27.323-47.663 22.324 1.238 43.897-3.278 62.379-13.056 15.667-8.388 28.355-20.618 36.882-35.553 8.906-15.558 13.536-33.281 13.519-51.745-.037-24.537-7.34-49.351-21.104-71.711s-33.456-41.399-56.908-55.021L120 0l-223 386.247 228.72 132.052c18.516 10.681 38.791 17.84 59.519 21.017s41.453 2.301 60.84-2.571M174.776 111.43l8.645 13.245 50.65 77.694c1.364 2.08 2.156 4.402 2.294 6.73.138 2.327-.381 4.579-1.506 6.528s-2.816 3.524-4.901 4.568-4.491 1.52-6.975 1.379l-92.61-5.017-15.793-.865 40.63 62.332 51.727 79.218c2.11 3.242 3.33 6.854 3.538 10.475s-.604 7.122-2.354 10.153c-1.749 3.03-4.376 5.484-7.615 7.114-3.24 1.63-6.978 2.38-10.841 2.174l-83.634-4.567-85.142-4.621z" opacity=".05"/></svg>

<svg width="412" height="542" viewBox="0 0 412 542" fill="none" xmlns="http://www.w3.org/2000/svg">
<path opacity="0.05" d="M246.079 536.745C277.891 529.156 304.181 510.321 319.805 483.928C327.034 471.397 331.321 457.338 332.411 442.587C333.5 427.837 331.37 412.697 326.146 398.066C320.218 381.013 310.94 364.83 298.823 350.403C321.147 351.641 342.72 347.125 361.202 337.347C376.869 328.959 389.557 316.729 398.084 301.794C406.99 286.236 411.62 268.513 411.603 250.049C411.566 225.512 404.263 200.698 390.499 178.338C376.735 155.978 357.043 136.939 333.591 123.317L120 1.2368e-05L-103 386.247L125.72 518.299C144.236 528.98 164.511 536.139 185.239 539.316C205.968 542.493 226.692 541.617 246.079 536.745ZM174.776 111.43L183.421 124.675L234.071 202.369C235.435 204.449 236.227 206.771 236.365 209.099C236.503 211.426 235.984 213.678 234.859 215.627C233.734 217.575 232.043 219.151 229.958 220.195C227.873 221.239 225.467 221.715 222.983 221.574L130.373 216.557L114.58 215.692L155.21 278.024L206.937 357.242C209.047 360.484 210.267 364.096 210.475 367.717C210.683 371.338 209.871 374.839 208.121 377.87C206.372 380.9 203.745 383.354 200.506 384.984C197.266 386.614 193.528 387.364 189.665 387.158L106.031 382.591L20.8892 377.97L174.776 111.43Z" fill="#7FB51F"/>
</svg>
